X: 24
T: Nuper rosarum flores / Terribilis est locus iste
N: Derived from Duf2054-Nuper_rosarum_flores__Terribilis_est_locus_iste.krn
C: Guillaume Du Fay
%%abc-version 2.0
%%abcx-abcm2ps-target-version 5.9.1 (29 Sep 2008)
%%abc-creator hum2abc beta
%%abcx-conversion-date 2019/02/16 20:31:47
%%abc-edited-by Jesse Rodin
%%abc-edited-by Jesse Rodin
%%abcx-initial-encoding-date 2014/08/06/
%%humdrum-veritas 2730563418
%%humdrum-veritas-data 2436649286
%%linebreak <none>
%%barnumbers 0
L: 1/4
M: 3/1
Q: 1/2=120
%%staves [1 2 3 4]
V: 1 clef=treble
V: 2 clef=treble-8
V: 3 clef=treble-8
V: 4 clef=bass
K: F
[V:1] G12 | 
[V:2] G12- | 
[V:3] z12 | 
[V:4] z12 | 
[V:1] =B2c2d6c2 | 
[V:2] G12 | 
[V:3] z12 | 
[V:4] z12 | 
[V:1] A2G2G4c4 | 
[V:2] c8c4 | 
[V:3] z12 | 
[V:4] z12 | 
[V:1] =B4A4c2B2 | 
[V:2] d6c2A2G2 | 
[V:3] z12 | 
[V:4] z12 | 
[V:1] G4G2^F4E2 | 
[V:2] B4A8 | 
[V:3] z12 | 
[V:4] z12 | 
[V:1] G8z4 | 
[V:2] G12 | 
[V:3] z12 | 
[V:4] z12 | 
[V:1] E6D2F4 | 
[V:2] z4G4A4 | 
[V:3] z12 | 
[V:4] z12 | 
[V:1] G8c4 | 
[V:2] G4c8 | 
[V:3] z12 | 
[V:4] z12 | 
[V:1] c8=B2A2 | 
[V:2] e4f2e2d4 | 
[V:3] z12 | 
[V:4] z12 | 
[V:1] c8=B4 | 
[V:2] c4z4e4- | 
[V:3] z12 | 
[V:4] z12 | 
[V:1] c4d8 | 
[V:2] e4d4f4- | 
[V:3] z12 | 
[V:4] z12 | 
[V:1] d4e6d2 | 
[V:2] f2e2c4g4 | 
[V:3] z12 | 
[V:4] z12 | 
[V:1] d6d2^c2=B2 | 
[V:2] f4g4e4 | 
[V:3] z12 | 
[V:4] z12 | 
[V:1] d12 | 
[V:2] d8z4 | 
[V:3] z12 | 
[V:4] z12 | 
[V:1] z2=B2c2d4G2 | 
[V:2] g4e2f2g4 | 
[V:3] z12 | 
[V:4] z12 | 
[V:1] A2=B2G4E2F2 | 
[V:2] c2d2e2c4A2 | 
[V:3] z12 | 
[V:4] z12 | 
[V:1] G3FE2D4G2 | 
[V:2] B2c4B2G4 | 
[V:3] z12 | 
[V:4] z12 | 
[V:1] F2A3=Bc3BAG | 
[V:2] d4c4f4 | 
[V:3] z12 | 
[V:4] z12 | 
[V:1] G2d2cB2ABG2F | 
[V:2] e2d4c2B4 | 
[V:3] z12 | 
[V:4] z12 | 
[V:1] A4z4z4 | 
[V:2] A8z4 | 
[V:3] z12 | 
[V:4] z12 | 
[V:1] A4B6A2 | 
[V:2] c4d6c2 | 
[V:3] z12 | 
[V:4] z12 | 
[V:1] F4z2A2=B2c2- | 
[V:2] d2c2A8 | 
[V:3] z12 | 
[V:4] z12 | 
[V:1] c2=B2A2G2E4 | 
[V:2] F4c8 | 
[V:3] z12 | 
[V:4] z12 | 
[V:1] D2G4F2B4 | 
[V:2] B4c2d4G2 | 
[V:3] z12 | 
[V:4] z12 | 
[V:1] A2d2B2G4^F2 | 
[V:2] F2G4B2A4 | 
[V:3] z12 | 
[V:4] z12 | 
[V:1] G4z4D2E2 | 
[V:2] G12 | 
[V:3] z12 | 
[V:4] z12 | 
[V:1] D2G3FD2C2DE | 
[V:2] B8A4 | 
[V:3] z12 | 
[V:4] z12 | 
[V:1] F2E2D2C2B,3A, | 
[V:2] F4G8 | 
[V:3] z12 | 
[V:4] z12 | 
[V:1] A,4z4A4 | 
[V:2] [D12F12] | 
[V:3] d12- | 
[V:4] z12 | 
[V:1] G4B6A2 | 
[V:2] z12 | 
[V:3] d12- | 
[V:4] G,12 | 
[V:1] ^F12 | 
[V:2] [D8A8][D4A4] | 
[V:3] d12- | 
[V:4] z12 | 
[V:1] ^F6G2F2E2 | 
[V:2] [D4A4][D8A8] | 
[V:3] d12 | 
[V:4] z12 | 
[V:1] G4z4z4 | 
[V:2] [B8d8][B4d4] | 
[V:3] z12 | 
[V:4] G,12 | 
[V:1] A4A4A4- | 
[V:2] [A8c8][A4c4] | 
[V:3] z12 | 
[V:4] F,12 | 
[V:1] A4F8 | 
[V:2] [F8A8]A4 | 
[V:3] d12- | 
[V:4] D,12- | 
[V:1] D4F2G2A4- | 
[V:2] B4A8 | 
[V:3] d12 | 
[V:4] D,12 | 
[V:1] A2G2A2F2E4 | 
[V:2] A8A4 | 
[V:3] c12 | 
[V:4] z12 | 
[V:1] z2A4G2F4- | 
[V:2] d8z4 | 
[V:3] A12 | 
[V:4] D,12 | 
[V:1] F2A2c2=B2A4 | 
[V:2] c4c2f2f2e2 | 
[V:3] z12 | 
[V:4] F,12- | 
[V:1] F2F2F3EC4 | 
[V:2] d2c2A8 | 
[V:3] z12 | 
[V:4] F,12 | 
[V:1] z2C2D2C2F4 | 
[V:2] F4F4F2G2 | 
[V:3] A12 | 
[V:4] z12 | 
[V:1] E2A3=Bc3BAG | 
[V:2] A4A4A4 | 
[V:3] c12 | 
[V:4] z12 | 
[V:1] =B3GG4z4 | 
[V:2] G12 | 
[V:3] d12- | 
[V:4] z12 | 
[V:1] G8G2F2 | 
[V:2] z12 | 
[V:3] d12- | 
[V:4] G,12- | 
[V:1] D4B6A2 | 
[V:2] g8g2f2 | 
[V:3] d12 | 
[V:4] G,12 | 
[V:1] G2F2F4B4 | 
[V:2] d8d4 | 
[V:3] z12 | 
[V:4] B,12 | 
[V:1] B8B4 | 
[V:2] [B8d8][B4d4] | 
[V:3] f12 | 
[V:4] z12 | 
[V:1] A4z4z4 | 
[V:2] [F12c12] | 
[V:3] f12 | 
[V:4] z12 | 
[V:1] D4D4D4 | 
[V:2] [G4g4][G4g4][G2g2][G2g2] | 
[V:3] z12 | 
[V:4] B,12- | 
[V:1] z2d4d4d2 | 
[V:2] d2d2d4d2d2 | 
[V:3] f12 | 
[V:4] B,12 | 
[V:1] e4d8 | 
[V:2] c2c2[G2d2][G2d2][G4d4] | 
[V:3] g12 | 
[V:4] z12 | 
[V:1] d2d2B2B2B2B2 | 
[V:2] z4d8 | 
[V:3] f12 | 
[V:4] B,12 | 
[V:1] A8c3B | 
[V:2] c4A8 | 
[V:3] e12 | 
[V:4] C12 | 
[V:1] G2F2B2A2G4 | 
[V:2] z4G8 | 
[V:3] d12 | 
[V:4] B,12 | 
[V:1] z2^F2F2G2F3E | 
[V:2] [D8d8][D4d4] | 
[V:3] z12 | 
[V:4] A,12 | 
[V:1] G8z4 | 
[V:2] d12 | 
[V:3] z12 | 
[V:4] G,12 | 
[V:1] [M:2/1]=B8 | 
[V:2] [M:2/1]g8- | 
[V:3] [M:4/2]z8 | 
[V:4] [M:4/2]z8 | 
[V:1] c4d4- | 
[V:2] g8 | 
[V:3] z8 | 
[V:4] z8 | 
[V:1] d4c4 | 
[V:2] f8- | 
[V:3] z8 | 
[V:4] z8 | 
[V:1] A6G2 | 
[V:2] f8 | 
[V:3] z8 | 
[V:4] z8 | 
[V:1] =B8 | 
[V:2] g8- | 
[V:3] z8 | 
[V:4] z8 | 
[V:1] z4G4- | 
[V:2] g8 | 
[V:3] z8 | 
[V:4] z8 | 
[V:1] G4A4 | 
[V:2] c8 | 
[V:3] z8 | 
[V:4] z8 | 
[V:1] G4c4 | 
[V:2] e4f4 | 
[V:3] z8 | 
[V:4] z8 | 
[V:1] =B4G4- | 
[V:2] g8 | 
[V:3] z8 | 
[V:4] z8 | 
[V:1] G4G4 | 
[V:2] e4c4- | 
[V:3] z8 | 
[V:4] z8 | 
[V:1] A4=B4 | 
[V:2] c4G4 | 
[V:3] z8 | 
[V:4] z8 | 
[V:1] c4d4- | 
[V:2] A4B4 | 
[V:3] z8 | 
[V:4] z8 | 
[V:1] d2c2c4- | 
[V:2] c4e4 | 
[V:3] z8 | 
[V:4] z8 | 
[V:1] c4=B4 | 
[V:2] d8 | 
[V:3] z8 | 
[V:4] z8 | 
[V:1] c8 | 
[V:2] c8- | 
[V:3] z8 | 
[V:4] z8 | 
[V:1] z8 | 
[V:2] c8 | 
[V:3] z8 | 
[V:4] z8 | 
[V:1] c4=B4 | 
[V:2] z8 | 
[V:3] z8 | 
[V:4] z8 | 
[V:1] G4A4- | 
[V:2] c8 | 
[V:3] z8 | 
[V:4] z8 | 
[V:1] A2G2E4 | 
[V:2] A8 | 
[V:3] z8 | 
[V:4] z8 | 
[V:1] G2F2D3C | 
[V:2] B8 | 
[V:3] z8 | 
[V:4] z8 | 
[V:1] C8 | 
[V:2] c8 | 
[V:3] z8 | 
[V:4] z8 | 
[V:1] z4G4- | 
[V:2] e8- | 
[V:3] z8 | 
[V:4] z8 | 
[V:1] G4A4- | 
[V:2] e4d4 | 
[V:3] z8 | 
[V:4] z8 | 
[V:1] A4G4- | 
[V:2] f4e4 | 
[V:3] z8 | 
[V:4] z8 | 
[V:1] G4c4 | 
[V:2] c8 | 
[V:3] z8 | 
[V:4] z8 | 
[V:1] =B4c4 | 
[V:2] G4A4 | 
[V:3] z8 | 
[V:4] z8 | 
[V:1] d4G4- | 
[V:2] G4B4 | 
[V:3] z8 | 
[V:4] z8 | 
[V:1] G2^F2F2E2 | 
[V:2] A8 | 
[V:3] z8 | 
[V:4] z8 | 
[V:1] G8- | 
[V:2] G8 | 
[V:3] z8 | 
[V:4] z8 | 
[V:1] G8 | 
[V:2] z8 | 
[V:3] z8 | 
[V:4] z8 | 
[V:1] z8 | 
[V:2] c8- | 
[V:3] z8 | 
[V:4] z8 | 
[V:1] G8 | 
[V:2] c8- | 
[V:3] z8 | 
[V:4] z8 | 
[V:1] A8- | 
[V:2] c8- | 
[V:3] z8 | 
[V:4] z8 | 
[V:1] A4G4 | 
[V:2] c8 | 
[V:3] z8 | 
[V:4] z8 | 
[V:1] =B4c4 | 
[V:2] G8- | 
[V:3] z8 | 
[V:4] z8 | 
[V:1] d8- | 
[V:2] G8 | 
[V:3] z8 | 
[V:4] z8 | 
[V:1] d4c4 | 
[V:2] F8- | 
[V:3] z8 | 
[V:4] z8 | 
[V:1] A6G2 | 
[V:2] F8 | 
[V:3] z8 | 
[V:4] z8 | 
[V:1] G8 | 
[V:2] G8 | 
[V:3] z8 | 
[V:4] z8 | 
[V:1] F4E4- | 
[V:2] A8 | 
[V:3] z8 | 
[V:4] z8 | 
[V:1] E2D2D4- | 
[V:2] G4F4 | 
[V:3] z8 | 
[V:4] z8 | 
[V:1] D4^C4 | 
[V:2] E8 | 
[V:3] z8 | 
[V:4] z8 | 
[V:1] D8- | 
[V:2] D8- | 
[V:3] z8 | 
[V:4] z8 | 
[V:1] D8 | 
[V:2] D4z4 | 
[V:3] z8 | 
[V:4] z8 | 
[V:1] z4A4- | 
[V:2] d6c2 | 
[V:3] z8 | 
[V:4] z8 | 
[V:1] A4G4 | 
[V:2] d4e4 | 
[V:3] z8 | 
[V:4] z8 | 
[V:1] A4B4- | 
[V:2] f4g4- | 
[V:3] z8 | 
[V:4] z8 | 
[V:1] B4A4 | 
[V:2] g2f2d4 | 
[V:3] z8 | 
[V:4] z8 | 
[V:1] G6F2 | 
[V:2] _e8 | 
[V:3] z8 | 
[V:4] z8 | 
[V:1] F8 | 
[V:2] d6c2 | 
[V:3] z8 | 
[V:4] z8 | 
[V:1] z4c4 | 
[V:2] A8 | 
[V:3] z8 | 
[V:4] z8 | 
[V:1] B4A4- | 
[V:2] G4F4 | 
[V:3] z8 | 
[V:4] z8 | 
[V:1] A2G2G4 | 
[V:2] G4B4 | 
[V:3] z8 | 
[V:4] z8 | 
[V:1] E4F4 | 
[V:2] A8 | 
[V:3] z8 | 
[V:4] z8 | 
[V:1] G4B4 | 
[V:2] G8 | 
[V:3] z8 | 
[V:4] z8 | 
[V:1] A8 | 
[V:2] F8 | 
[V:3] z8 | 
[V:4] z8 | 
[V:1] G8 | 
[V:2] G8- | 
[V:3] d8- | 
[V:4] z8 | 
[V:1] z4d4 | 
[V:2] G8 | 
[V:3] d8- | 
[V:4] z8 | 
[V:1] c4B4- | 
[V:2] z8 | 
[V:3] d8- | 
[V:4] G,8- | 
[V:1] B2A2G4 | 
[V:2] z8 | 
[V:3] d8- | 
[V:4] G,8 | 
[V:1] ^F8 | 
[V:2] [D8A8] | 
[V:3] d8- | 
[V:4] z8 | 
[V:1] z4^F4- | 
[V:2] [D8A8] | 
[V:3] d8- | 
[V:4] z8 | 
[V:1] F4^F4- | 
[V:2] [D8A8]- | 
[V:3] d8- | 
[V:4] z8 | 
[V:1] F4^F4 | 
[V:2] [D8A8] | 
[V:3] d8 | 
[V:4] z8 | 
[V:1] G8 | 
[V:2] [B8d8]- | 
[V:3] z8 | 
[V:4] G,8- | 
[V:1] z8 | 
[V:2] [B8d8] | 
[V:3] z8 | 
[V:4] G,8 | 
[V:1] A6G2 | 
[V:2] [A8c8] | 
[V:3] z8 | 
[V:4] F,8- | 
[V:1] A2=B2c4 | 
[V:2] [A8c8] | 
[V:3] z8 | 
[V:4] F,8 | 
[V:1] d2c2A4- | 
[V:2] [F8A8] | 
[V:3] d8- | 
[V:4] D,8- | 
[V:1] A2F2G2F2 | 
[V:2] [F8A8] | 
[V:3] d8- | 
[V:4] D,8- | 
[V:1] D4F4- | 
[V:2] B8 | 
[V:3] d8- | 
[V:4] D,8- | 
[V:1] F2G2A4- | 
[V:2] A8- | 
[V:3] d8 | 
[V:4] D,8 | 
[V:1] A2G2F2E2 | 
[V:2] A8 | 
[V:3] c8- | 
[V:4] z8 | 
[V:1] E8 | 
[V:2] A8 | 
[V:3] c8 | 
[V:4] z8 | 
[V:1] z4A4- | 
[V:2] d8 | 
[V:3] A8- | 
[V:4] D,8- | 
[V:1] A4F4- | 
[V:2] d8 | 
[V:3] A8 | 
[V:4] D,8 | 
[V:1] F4c4- | 
[V:2] c8 | 
[V:3] z8 | 
[V:4] F,8- | 
[V:1] c4c4 | 
[V:2] f4e4 | 
[V:3] z8 | 
[V:4] F,8- | 
[V:1] A8 | 
[V:2] d6c2 | 
[V:3] z8 | 
[V:4] F,8- | 
[V:1] z4F4 | 
[V:2] c8 | 
[V:3] z8 | 
[V:4] F,8 | 
[V:1] E4C4 | 
[V:2] z4F4- | 
[V:3] A8- | 
[V:4] z8 | 
[V:1] F6E2 | 
[V:2] F4G4 | 
[V:3] A8 | 
[V:4] z8 | 
[V:1] E4A4- | 
[V:2] A8- | 
[V:3] c8- | 
[V:4] z8 | 
[V:1] A2=B2c2A2 | 
[V:2] A8 | 
[V:3] c8 | 
[V:4] z8 | 
[V:1] =B4G4 | 
[V:2] G8- | 
[V:3] d8- | 
[V:4] z8 | 
[V:1] z4d4 | 
[V:2] G8 | 
[V:3] d8- | 
[V:4] z8 | 
[V:1] =B4G4- | 
[V:2] z8 | 
[V:3] d8- | 
[V:4] G,8- | 
[V:1] G2F2E2D2 | 
[V:2] z8 | 
[V:3] d8- | 
[V:4] G,8- | 
[V:1] D8 | 
[V:2] g8- | 
[V:3] d8- | 
[V:4] G,8- | 
[V:1] B6A2 | 
[V:2] g4f4 | 
[V:3] d8 | 
[V:4] G,8 | 
[V:1] G4F4 | 
[V:2] d8- | 
[V:3] z8 | 
[V:4] B,8- | 
[V:1] B8 | 
[V:2] d8 | 
[V:3] z8 | 
[V:4] B,8 | 
[V:1] A8 | 
[V:2] [D8d8]- | 
[V:3] f8- | 
[V:4] z8 | 
[V:1] A8 | 
[V:2] [D8d8] | 
[V:3] f8 | 
[V:4] z8 | 
[V:1] [D8A8]- | 
[V:2] [D8A8]- | 
[V:3] f8- | 
[V:4] z8 | 
[V:1] [D8A8] | 
[V:2] [D8A8] | 
[V:3] f8 | 
[V:4] z8 | 
[V:1] d8 | 
[V:2] G8 | 
[V:3] z8 | 
[V:4] B,8- | 
[V:1] d8 | 
[V:2] G8 | 
[V:3] z8 | 
[V:4] B,8- | 
[V:1] z8 | 
[V:2] d8 | 
[V:3] f8- | 
[V:4] B,8- | 
[V:1] d8 | 
[V:2] d8 | 
[V:3] f8 | 
[V:4] B,8 | 
[V:1] e8 | 
[V:2] c6B2 | 
[V:3] g8- | 
[V:4] z8 | 
[V:1] d8- | 
[V:2] G8 | 
[V:3] g8 | 
[V:4] z8 | 
[V:1] d4c4 | 
[V:2] z8 | 
[V:3] f8- | 
[V:4] B,8- | 
[V:1] B8 | 
[V:2] d8 | 
[V:3] f8 | 
[V:4] B,8 | 
[V:1] A8 | 
[V:2] c8 | 
[V:3] e8- | 
[V:4] C8- | 
[V:1] z4A4 | 
[V:2] A8 | 
[V:3] e8 | 
[V:4] C8 | 
[V:1] B4G4- | 
[V:2] z8 | 
[V:3] d8- | 
[V:4] B,8- | 
[V:1] G4G4 | 
[V:2] G8 | 
[V:3] d8 | 
[V:4] B,8 | 
[V:1] A4^F4- | 
[V:2] [D8d8] | 
[V:3] z8 | 
[V:4] A,8- | 
[V:1] F4E4 | 
[V:2] [D8d8] | 
[V:3] z8 | 
[V:4] A,8 | 
[V:1] G8 | 
[V:2] d8- | 
[V:3] z8 | 
[V:4] G,8- | 
[V:1] z8 | 
[V:2] d8 | 
[V:3] z8 | 
[V:4] G,8 | 
[V:1] A8 | 
[V:2] d8- | 
[V:3] [M:2/1]z8 | 
[V:4] [M:2/1]z8 | 
[V:1] =B4G4 | 
[V:2] d4e4 | 
[V:3] z8 | 
[V:4] z8 | 
[V:1] A8 | 
[V:2] c4d4- | 
[V:3] z8 | 
[V:4] z8 | 
[V:1] F4G4- | 
[V:2] d4B4 | 
[V:3] z8 | 
[V:4] z8 | 
[V:1] G4E4 | 
[V:2] c8 | 
[V:3] z8 | 
[V:4] z8 | 
[V:1] F4D4- | 
[V:2] A4B4 | 
[V:3] z8 | 
[V:4] z8 | 
[V:1] D4d4- | 
[V:2] G8 | 
[V:3] z8 | 
[V:4] z8 | 
[V:1] d4=B4 | 
[V:2] g8 | 
[V:3] z8 | 
[V:4] z8 | 
[V:1] c4d4- | 
[V:2] e4f4 | 
[V:3] z8 | 
[V:4] z8 | 
[V:1] d2=B2B4- | 
[V:2] g6e2 | 
[V:3] z8 | 
[V:4] z8 | 
[V:1] B2G2G4 | 
[V:2] e6c2 | 
[V:3] z8 | 
[V:4] z8 | 
[V:1] A4=B4 | 
[V:2] c4d4 | 
[V:3] z8 | 
[V:4] z8 | 
[V:1] G8 | 
[V:2] e4c4- | 
[V:3] z8 | 
[V:4] z8 | 
[V:1] c4d4 | 
[V:2] c4f4 | 
[V:3] z8 | 
[V:4] z8 | 
[V:1] =B4G4 | 
[V:2] g4e4 | 
[V:3] z8 | 
[V:4] z8 | 
[V:1] A4F4 | 
[V:2] c4d4 | 
[V:3] z8 | 
[V:4] z8 | 
[V:1] D8 | 
[V:2] B4G4- | 
[V:3] z8 | 
[V:4] z8 | 
[V:1] G4E4 | 
[V:2] G4c4 | 
[V:3] z8 | 
[V:4] z8 | 
[V:1] F8 | 
[V:2] A4B4- | 
[V:3] z8 | 
[V:4] z8 | 
[V:1] G4A4- | 
[V:2] B4c4 | 
[V:3] z8 | 
[V:4] z8 | 
[V:1] A4=B4 | 
[V:2] d8 | 
[V:3] z8 | 
[V:4] z8 | 
[V:1] c4A4- | 
[V:2] c8 | 
[V:3] z8 | 
[V:4] z8 | 
[V:1] A2G2G4- | 
[V:2] G4B4 | 
[V:3] z8 | 
[V:4] z8 | 
[V:1] G4^F4 | 
[V:2] A8 | 
[V:3] z8 | 
[V:4] z8 | 
[V:1] G8 | 
[V:2] G8- | 
[V:3] z8 | 
[V:4] z8 | 
[V:1] z8 | 
[V:2] G8 | 
[V:3] z8 | 
[V:4] z8 | 
[V:1] A8 | 
[V:2] z4d4- | 
[V:3] z8 | 
[V:4] z8 | 
[V:1] F4G4 | 
[V:2] d4e4 | 
[V:3] z8 | 
[V:4] z8 | 
[V:1] A8 | 
[V:2] f8 | 
[V:3] d8- | 
[V:4] z8 | 
[V:1] G4d4- | 
[V:2] g8 | 
[V:3] d8- | 
[V:4] G,8 | 
[V:1] d4c4 | 
[V:2] f8- | 
[V:3] d8- | 
[V:4] z8 | 
[V:1] A6G2 | 
[V:2] f8 | 
[V:3] d8 | 
[V:4] z8 | 
[V:1] [G8=B8] | 
[V:2] d6c2 | 
[V:3] z8 | 
[V:4] G,8 | 
[V:1] z4A4- | 
[V:2] A8- | 
[V:3] z8 | 
[V:4] F,8 | 
[V:1] A4F4 | 
[V:2] A8 | 
[V:3] d8- | 
[V:4] D,8- | 
[V:1] A4G4 | 
[V:2] A8 | 
[V:3] d8 | 
[V:4] D,8 | 
[V:1] E8 | 
[V:2] A8 | 
[V:3] c8 | 
[V:4] z8 | 
[V:1] D4A4- | 
[V:2] d8 | 
[V:3] A8 | 
[V:4] D,8 | 
[V:1] A4=B4 | 
[V:2] c8 | 
[V:3] z8 | 
[V:4] F,8- | 
[V:1] c4A4- | 
[V:2] A8 | 
[V:3] z8 | 
[V:4] F,8 | 
[V:1] A4d4 | 
[V:2] F4G4 | 
[V:3] A8 | 
[V:4] z8 | 
[V:1] c4A4 | 
[V:2] A8 | 
[V:3] c8 | 
[V:4] z8 | 
[V:1] =B8 | 
[V:2] G8 | 
[V:3] d8- | 
[V:4] z8 | 
[V:1] G8 | 
[V:2] z8 | 
[V:3] d8- | 
[V:4] G,8- | 
[V:1] z8 | 
[V:2] g6f2 | 
[V:3] d8 | 
[V:4] G,8 | 
[V:1] F8 | 
[V:2] d8 | 
[V:3] z8 | 
[V:4] B,8 | 
[V:1] B8 | 
[V:2] [B8d8] | 
[V:3] f8 | 
[V:4] z8 | 
[V:1] A8 | 
[V:2] [F8c8] | 
[V:3] f8 | 
[V:4] z8 | 
[V:1] D8 | 
[V:2] [G8g8] | 
[V:3] z8 | 
[V:4] B,8- | 
[V:1] z4d4- | 
[V:2] d8 | 
[V:3] f8 | 
[V:4] B,8 | 
[V:1] d4c4 | 
[V:2] [G8d8] | 
[V:3] g8 | 
[V:4] z8 | 
[V:1] B8 | 
[V:2] z4d4 | 
[V:3] f8 | 
[V:4] B,8 | 
[V:1] A8 | 
[V:2] c4A4 | 
[V:3] e8 | 
[V:4] C8 | 
[V:1] G8 | 
[V:2] B4G4 | 
[V:3] d8 | 
[V:4] B,8 | 
[V:1] ^F6E2 | 
[V:2] c8 | 
[V:3] z8 | 
[V:4] A,8 | 
[V:1] G4z4 | 
[V:2] d8 | 
[V:3] z8 | 
[V:4] G,8 | 
[V:1] [M:3/1]=B8c4 | 
[V:2] [M:3/1]g8e4 | 
[V:3] [M:3/1]z12 | 
[V:4] [M:3/1]z12 | 
[V:1] d4=B6G2 | 
[V:2] f4g8 | 
[V:3] z12 | 
[V:4] z12 | 
[V:1] G8E4 | 
[V:2] e4c8 | 
[V:3] z12 | 
[V:4] z12 | 
[V:1] F4B6A2 | 
[V:2] d8c4- | 
[V:3] z12 | 
[V:4] z12 | 
[V:1] A4G6F2 | 
[V:2] c4B8 | 
[V:3] z12 | 
[V:4] z12 | 
[V:1] A12 | 
[V:2] A12 | 
[V:3] z12 | 
[V:4] z12 | 
[V:1] z4E8 | 
[V:2] c8c4 | 
[V:3] z12 | 
[V:4] z12 | 
[V:1] D4F6G2 | 
[V:2] d12- | 
[V:3] z12 | 
[V:4] z12 | 
[V:1] A6G2c4 | 
[V:2] d4c8 | 
[V:3] z12 | 
[V:4] z12 | 
[V:1] =B4A6G2 | 
[V:2] G4F4G4 | 
[V:3] z12 | 
[V:4] z12 | 
[V:1] G8^F4 | 
[V:2] B4A8 | 
[V:3] z12 | 
[V:4] z12 | 
[V:1] G12 | 
[V:2] G12- | 
[V:3] z12 | 
[V:4] z12 | 
[V:1] z12 | 
[V:2] G12 | 
[V:3] z12 | 
[V:4] z12 | 
[V:1] A4=B2d4c2 | 
[V:2] [D12d12]- | 
[V:3] z12 | 
[V:4] z12 | 
[V:1] =B4A4G2F2 | 
[V:2] [D12d12] | 
[V:3] z12 | 
[V:4] z12 | 
[V:1] E4A6G2 | 
[V:2] [A12c12] | 
[V:3] z12 | 
[V:4] z12 | 
[V:1] G4F4E2D2 | 
[V:2] [B12d12] | 
[V:3] z12 | 
[V:4] z12 | 
[V:1] C12 | 
[V:2] [A12e12] | 
[V:3] z12 | 
[V:4] z12 | 
[V:1] z4E4F2G2 | 
[V:2] [A12c12] | 
[V:3] z12 | 
[V:4] z12 | 
[V:1] B4A4F4- | 
[V:2] [D8d8][D4A4] | 
[V:3] z12 | 
[V:4] z12 | 
[V:1] F4E6D2 | 
[V:2] [D4B4][A8c8] | 
[V:3] z12 | 
[V:4] z12 | 
[V:1] D12 | 
[V:2] [D12d12]- | 
[V:3] z12 | 
[V:4] z12 | 
[V:1] z4z4A4 | 
[V:2] [D12d12] | 
[V:3] z12 | 
[V:4] z12 | 
[V:1] G4c6A2 | 
[V:2] [c8e8][A4f4] | 
[V:3] z12 | 
[V:4] z12 | 
[V:1] =B4d2c2A4 | 
[V:2] [G8g8][d4f4] | 
[V:3] z12 | 
[V:4] z12 | 
[V:1] z4F4B4 | 
[V:2] [A4e4][B8d8] | 
[V:3] z12 | 
[V:4] z12 | 
[V:1] A4D6E2 | 
[V:2] [F4c4][G8B8] | 
[V:3] z12 | 
[V:4] z12 | 
[V:1] G4^F8 | 
[V:2] [D12A12] | 
[V:3] z12 | 
[V:4] z12 | 
[V:1] z4A6G2 | 
[V:2] [D12A12] | 
[V:3] d12- | 
[V:4] z12 | 
[V:1] G6F2D2E2 | 
[V:2] z12 | 
[V:3] d12- | 
[V:4] G,12 | 
[V:1] F4G2A4B2 | 
[V:2] [D12A12] | 
[V:3] d12- | 
[V:4] z12 | 
[V:1] A2^F4G2F2E2 | 
[V:2] [D12A12] | 
[V:3] d12 | 
[V:4] z12 | 
[V:1] G8z4 | 
[V:2] [B12d12] | 
[V:3] z12 | 
[V:4] G,12 | 
[V:1] A8A4 | 
[V:2] [A12c12] | 
[V:3] z12 | 
[V:4] F,12 | 
[V:1] A4F6D2 | 
[V:2] [F8A8]A4 | 
[V:3] d12- | 
[V:4] D,12- | 
[V:1] D4F4G2A2- | 
[V:2] B4A8- | 
[V:3] d12 | 
[V:4] D,12 | 
[V:1] A2G2E6D2 | 
[V:2] A12 | 
[V:3] c12 | 
[V:4] z12 | 
[V:1] D4z4A4- | 
[V:2] z4d8 | 
[V:3] A12 | 
[V:4] D,12 | 
[V:1] A2=B2c2d2c2A2 | 
[V:2] c4f6e2 | 
[V:3] z12 | 
[V:4] F,12- | 
[V:1] =B2A4G2A2F2 | 
[V:2] d4c4A4 | 
[V:3] z12 | 
[V:4] F,12 | 
[V:1] E4A6G2 | 
[V:2] z4A8 | 
[V:3] A12 | 
[V:4] z12 | 
[V:1] G4z2c4A2 | 
[V:2] G4A8 | 
[V:3] c12 | 
[V:4] z12 | 
[V:1] c4=B4z4 | 
[V:2] G12 | 
[V:3] d12- | 
[V:4] z12 | 
[V:1] G8G4 | 
[V:2] z12 | 
[V:3] d12- | 
[V:4] G,12- | 
[V:1] D4B6A2 | 
[V:2] g8g4 | 
[V:3] d12 | 
[V:4] G,12 | 
[V:1] G4F8 | 
[V:2] d8d4 | 
[V:3] z12 | 
[V:4] B,12 | 
[V:1] B4B8 | 
[V:2] [B4d4][B8d8] | 
[V:3] f12 | 
[V:4] z12 | 
[V:1] A6F2G2F2 | 
[V:2] [F12c12] | 
[V:3] f12 | 
[V:4] z12 | 
[V:1] D12 | 
[V:2] [G12g12] | 
[V:3] z12 | 
[V:4] B,12- | 
[V:1] z4z4d4 | 
[V:2] d8d4 | 
[V:3] f12 | 
[V:4] B,12 | 
[V:1] e4d8 | 
[V:2] c4[G8d8] | 
[V:3] g12 | 
[V:4] z12 | 
[V:1] d6c2B4 | 
[V:2] z4d8 | 
[V:3] f12 | 
[V:4] B,12 | 
[V:1] A4z4c2=B2 | 
[V:2] c4A8 | 
[V:3] e12 | 
[V:4] C12 | 
[V:1] G6F2D2G2- | 
[V:2] z4G8 | 
[V:3] d12 | 
[V:4] B,12 | 
[V:1] G2F2G2A2^F3E | 
[V:2] [D12d12] | 
[V:3] z12 | 
[V:4] A,12 | 
[V:1] G8z4 | 
[V:2] d8z4 | 
[V:3] z12 | 
[V:4] G,12 | 
[V:1] G8F4 | 
[V:2] G8D4 | 
[V:3] d8d4 | 
[V:4] B,8A,4 | 
[V:1] G4A6G2 | 
[V:2] G4F8 | 
[V:3] e4f6e2 | 
[V:4] B,4C6B,2 | 
[V:1] G4!fermata!^F8 | 
[V:2] G4!fermata!D8 | 
[V:3] !fermata!d12 | 
[V:4] G,4!fermata!A,8 | 
[V:1] G12 |]  
[V:2] d12 |]  
[V:3] B8d4 |]  
[V:4] G,12 |]  



